icons/plexis/48/steam_icon_35480.svg

<svg viewBox="0 0 48 48" xmlns="http://www.w3.org/2000/svg" xmlns:xlink="http://www.w3.org/1999/xlink">
  <linearGradient id="a" gradientTransform="matrix(0 -1 1 0 -.0000015 47.999998)" gradientUnits="userSpaceOnUse" x1="1" x2="47">
    <stop offset="0" stop-color="#d76c1d"/>
    <stop offset="1" stop-color="#e27425"/>
  </linearGradient>
  <path d="m47 24c0 22.703-.297 23-23 23-22.703 0-23-.297-23-23 0-22.703.297-23 23-23 22.703 0 23 .297 23 23z" fill="url(#a)"/>
  <g>
    <path d="m33.368 16.497l-1.68-.375-.254 1.391c-5.539-4.691-9.06-6.563-11.996-4.938 2.762.551 8.03 3.813 9.113 6.262l-1.285 1.902-13.266 13.617.832.824.832.82 13.512-13.375 1.895-1.301c2.469 1.055 5.797 6.27 6.371 9.02 1.602-2.941-.309-6.438-5.074-11.906l1.391-.27-.395-1.672m.004 0" fill-opacity=".098"/>
    <path d="m32.367 15.496l-1.68-.375-.254 1.391c-5.539-4.691-9.06-6.563-11.996-4.938 2.762.551 8.03 3.813 9.113 6.262l-1.285 1.902-13.266 13.617.832.824.832.82 13.512-13.375 1.895-1.301c2.469 1.055 5.797 6.27 6.371 9.02 1.602-2.941-.309-6.438-5.074-11.906l1.391-.27-.395-1.672m.004 0" fill="#41210a"/>
  </g>
</svg>

<svg xmlns="http://www.w3.org/2000/svg" viewBox="0 0 48 48">
 <defs>
  <linearGradient id="linearGradient3764" x1="1" x2="47" gradientUnits="userSpaceOnUse" gradientTransform="matrix(0,-1,1,0,-1.5e-6,47.999998)">
   <stop style="stop-color:#d76c1d;stop-opacity:1"/>
   <stop offset="1" style="stop-color:#e27425;stop-opacity:1"/>
  </linearGradient>
 </defs>
 <g>
  
  
  
 </g>
 <g>
  <path d="m 47,24 C 47,46.703 46.703,47 24,47 1.297,47 1,46.703 1,24 1,1.297 1.297,1 24,1 46.703,1 47,1.297 47,24 z" style="fill:url(#linearGradient3764);fill-opacity:1"/>
 </g>
 <g>
  <g>
   <g transform="translate(1,1)">
    <g style="opacity:0.1">
     <!-- color: #e27425 -->
    </g>
   </g>
  </g>
 </g>
 <g style="fill:#000">
  <g>
   <!-- color: #e27425 -->
   <g>
    <path d="m 33.368,16.497 -1.68,-0.375 -0.254,1.391 c -5.539,-4.691 -9.06,-6.563 -11.996,-4.938 2.762,0.551 8.03,3.813 9.113,6.262 L 27.266,20.739 14,34.356 14.832,35.18 15.664,36 29.176,22.625 31.071,21.324 c 2.469,1.055 5.797,6.27 6.371,9.02 1.602,-2.941 -0.309,-6.438 -5.074,-11.906 l 1.391,-0.27 -0.395,-1.672 m 0.004,0" style="fill-opacity:0.098;stroke:none;fill-rule:nonzero"/>
    <path d="m 32.367 15.496 l -1.68 -0.375 l -0.254 1.391 c -5.539 -4.691 -9.06 -6.563 -11.996 -4.938 c 2.762 0.551 8.03 3.813 9.113 6.262 l -1.285 1.902 l -13.266 13.617 l 0.832 0.824 l 0.832 0.82 l 13.512 -13.375 l 1.895 -1.301 c 2.469 1.055 5.797 6.27 6.371 9.02 c 1.602 -2.941 -0.309 -6.438 -5.074 -11.906 l 1.391 -0.27 l -0.395 -1.672 m 0.004 0" style="fill:#41210a;fill-opacity:1;stroke:none;fill-rule:nonzero"/>
   </g>
  </g>
 </g>
 <g>
  
 </g>
</svg>
